X:1
T:Follow Me up to Carlow
M:6/8
L:1/4
K:C
 D D/2 D C/2| A, B,/2 C3/2| D D/2 F G/2| A G/2 F E/2| D D/2 D C/2|\
 A, B,/2 C3/2|D/2-D/2 D/2 E C/2| D3/2- D3/2| D D/2 D C/2| A, B,/2 C3/2|\
 D D/2 F G/2| A G/2 F E/2| D D/2 D C/2| A, B,/2 C3/2| D/2D/2D/2 E C/2|\
 D3/2- D3/2| A B/2 c3/2| A B/2 c3/2| E E/2 E D/2| C D/2 E3/2| A B/2 c B/2|\
 A B/2 c3/2| E E/2E/2-D/2 C/2| D3/2 D3/2| A B/2 c c/2| A B/2 c3/2|\
 E E/2 E D/2| C D/2 E3/2| A B/2 c A/2| d/2c/2B/2 c3/2| E E/2 E/2D/2C/2|\
 D3/2 D3/2|
